src/main/resources/static/assets/img/checklist.svg

<svg width="51" height="41" viewBox="0 0 51 41" fill="none" xmlns="http://www.w3.org/2000/svg">
<path fill-rule="evenodd" clip-rule="evenodd" d="M14.5731 37.0924C14.5731 36.5747 14.765 36.0782 15.1065 35.7121C15.4481 35.346 15.9114 35.1404 16.3944 35.1404H49.1787C49.6617 35.1404 50.125 35.346 50.4665 35.7121C50.8081 36.0782 51 36.5747 51 37.0924C51 37.6101 50.8081 38.1066 50.4665 38.4727C50.125 38.8388 49.6617 39.0445 49.1787 39.0445H16.3944C15.9114 39.0445 15.4481 38.8388 15.1065 38.4727C14.765 38.1066 14.5731 37.6101 14.5731 37.0924ZM14.5731 21.476C14.5731 20.9583 14.765 20.4618 15.1065 20.0957C15.4481 19.7296 15.9114 19.524 16.3944 19.524H49.1787C49.6617 19.524 50.125 19.7296 50.4665 20.0957C50.8081 20.4618 51 20.9583 51 21.476C51 21.9937 50.8081 22.4903 50.4665 22.8563C50.125 23.2224 49.6617 23.4281 49.1787 23.4281H16.3944C15.9114 23.4281 15.4481 23.2224 15.1065 22.8563C14.765 22.4903 14.5731 21.9937 14.5731 21.476ZM14.5731 5.85964C14.5731 5.34192 14.765 4.84541 15.1065 4.47933C15.4481 4.11325 15.9114 3.90759 16.3944 3.90759H49.1787C49.6617 3.90759 50.125 4.11325 50.4665 4.47933C50.8081 4.84541 51 5.34192 51 5.85964C51 6.37735 50.8081 6.87386 50.4665 7.23994C50.125 7.60602 49.6617 7.81168 49.1787 7.81168H16.3944C15.9114 7.81168 15.4481 7.60602 15.1065 7.23994C14.765 6.87386 14.5731 6.37735 14.5731 5.85964ZM10.3985 0.573487C10.5682 0.754816 10.7027 0.970227 10.7946 1.20738C10.8864 1.44454 10.9336 1.69878 10.9336 1.95554C10.9336 2.2123 10.8864 2.46654 10.7946 2.70369C10.7027 2.94085 10.5682 3.15626 10.3985 3.33759L4.93451 9.19374C4.76532 9.37552 4.56433 9.51975 4.34306 9.61816C4.12178 9.71657 3.88456 9.76722 3.64499 9.76722C3.40542 9.76722 3.16821 9.71657 2.94693 9.61816C2.72566 9.51975 2.52467 9.37552 2.35548 9.19374L0.534134 7.24169C0.364793 7.06019 0.230464 6.84473 0.138817 6.6076C0.0471699 6.37046 2.52338e-09 6.11631 0 5.85964C-2.52338e-09 5.60296 0.0471699 5.34881 0.138817 5.11168C0.230464 4.87454 0.364793 4.65908 0.534134 4.47758C0.703475 4.29609 0.904513 4.15212 1.12577 4.0539C1.34702 3.95568 1.58416 3.90512 1.82365 3.90512C2.06313 3.90512 2.30027 3.95568 2.52153 4.0539C2.74278 4.15212 2.94382 4.29609 3.11316 4.47758L3.64499 5.05149L7.81952 0.573487C7.98871 0.3917 8.18969 0.247472 8.41097 0.149064C8.63225 0.0506551 8.86946 0 9.10903 0C9.3486 0 9.58582 0.0506551 9.8071 0.149064C10.0284 0.247472 10.2294 0.3917 10.3985 0.573487ZM10.3985 16.1899C10.5682 16.3712 10.7027 16.5866 10.7946 16.8238C10.8864 17.0609 10.9336 17.3152 10.9336 17.5719C10.9336 17.8287 10.8864 18.0829 10.7946 18.3201C10.7027 18.5572 10.5682 18.7726 10.3985 18.954L4.93451 24.8101C4.76532 24.9919 4.56433 25.1361 4.34306 25.2345C4.12178 25.333 3.88456 25.3836 3.64499 25.3836C3.40542 25.3836 3.16821 25.333 2.94693 25.2345C2.72566 25.1361 2.52467 24.9919 2.35548 24.8101L0.534134 22.8581C0.192134 22.4915 0 21.9944 0 21.476C0 20.9577 0.192134 20.4605 0.534134 20.094C0.876134 19.7274 1.33999 19.5215 1.82365 19.5215C2.30731 19.5215 2.77116 19.7274 3.11316 20.094L3.64499 20.6679L7.81952 16.1899C7.98871 16.0081 8.18969 15.8639 8.41097 15.7655C8.63225 15.667 8.86946 15.6164 9.10903 15.6164C9.3486 15.6164 9.58582 15.667 9.8071 15.7655C10.0284 15.8639 10.2294 16.0081 10.3985 16.1899ZM10.3985 31.8063C10.5682 31.9876 10.7027 32.203 10.7946 32.4402C10.8864 32.6773 10.9336 32.9316 10.9336 33.1883C10.9336 33.4451 10.8864 33.6993 10.7946 33.9365C10.7027 34.1736 10.5682 34.389 10.3985 34.5704L4.93451 40.4265C4.76532 40.6083 4.56433 40.7525 4.34306 40.8509C4.12178 40.9493 3.88456 41 3.64499 41C3.40542 41 3.16821 40.9493 2.94693 40.8509C2.72566 40.7525 2.52467 40.6083 2.35548 40.4265L0.534134 38.4745C0.192134 38.1079 0 37.6108 0 37.0924C0 36.574 0.192134 36.0769 0.534134 35.7104C0.876134 35.3438 1.33999 35.1379 1.82365 35.1379C2.30731 35.1379 2.77116 35.3438 3.11316 35.7104L3.64499 36.2843L7.81952 31.8063C7.98871 31.6245 8.18969 31.4803 8.41097 31.3818C8.63225 31.2834 8.86946 31.2328 9.10903 31.2328C9.3486 31.2328 9.58582 31.2834 9.8071 31.3818C10.0284 31.4803 10.2294 31.6245 10.3985 31.8063Z" fill="#F6DCBF"/>
</svg>

<?xml version="1.0" encoding="utf-8"?>
<!-- Generator: Adobe Illustrator 24.0.0, SVG Export Plug-In . SVG Version: 6.00 Build 0)  -->
<svg version="1.1" id="Layer_1" xmlns="http://www.w3.org/2000/svg" xmlns:xlink="http://www.w3.org/1999/xlink" x="0px" y="0px"
	 viewBox="0 0 51 41" style="enable-background:new 0 0 51 41;" xml:space="preserve">
<style type="text/css">
	.st0{fill-rule:evenodd;clip-rule:evenodd;fill:#FFFFFF;}
</style>
<path class="st0" d="M14.6,37.1c0-0.5,0.2-1,0.5-1.4c0.3-0.4,0.8-0.6,1.3-0.6h32.8c0.5,0,0.9,0.2,1.3,0.6c0.3,0.4,0.5,0.9,0.5,1.4
	s-0.2,1-0.5,1.4c-0.3,0.4-0.8,0.6-1.3,0.6H16.4c-0.5,0-0.9-0.2-1.3-0.6C14.8,38.1,14.6,37.6,14.6,37.1z M14.6,21.5
	c0-0.5,0.2-1,0.5-1.4c0.3-0.4,0.8-0.6,1.3-0.6h32.8c0.5,0,0.9,0.2,1.3,0.6c0.3,0.4,0.5,0.9,0.5,1.4s-0.2,1-0.5,1.4
	c-0.3,0.4-0.8,0.6-1.3,0.6H16.4c-0.5,0-0.9-0.2-1.3-0.6C14.8,22.5,14.6,22,14.6,21.5z M14.6,5.9c0-0.5,0.2-1,0.5-1.4
	c0.3-0.4,0.8-0.6,1.3-0.6h32.8c0.5,0,0.9,0.2,1.3,0.6C50.8,4.8,51,5.3,51,5.9c0,0.5-0.2,1-0.5,1.4c-0.3,0.4-0.8,0.6-1.3,0.6H16.4
	c-0.5,0-0.9-0.2-1.3-0.6C14.8,6.9,14.6,6.4,14.6,5.9z M10.4,0.6c0.2,0.2,0.3,0.4,0.4,0.6c0.1,0.2,0.1,0.5,0.1,0.7s0,0.5-0.1,0.7
	c-0.1,0.2-0.2,0.5-0.4,0.6L4.9,9.2C4.8,9.4,4.6,9.5,4.3,9.6C4.1,9.7,3.9,9.8,3.6,9.8S3.2,9.7,2.9,9.6C2.7,9.5,2.5,9.4,2.4,9.2
	l-1.8-2C0.4,7.1,0.2,6.8,0.1,6.6C0,6.4,0,6.1,0,5.9c0-0.3,0-0.5,0.1-0.7c0.1-0.2,0.2-0.5,0.4-0.6c0.2-0.2,0.4-0.3,0.6-0.4
	C1.3,4,1.6,3.9,1.8,3.9c0.2,0,0.5,0.1,0.7,0.1c0.2,0.1,0.4,0.2,0.6,0.4l0.5,0.6l4.2-4.5C8,0.4,8.2,0.2,8.4,0.1C8.6,0.1,8.9,0,9.1,0
	c0.2,0,0.5,0.1,0.7,0.1C10,0.2,10.2,0.4,10.4,0.6z M10.4,16.2c0.2,0.2,0.3,0.4,0.4,0.6c0.1,0.2,0.1,0.5,0.1,0.7c0,0.3,0,0.5-0.1,0.7
	c-0.1,0.2-0.2,0.5-0.4,0.6l-5.5,5.9c-0.2,0.2-0.4,0.3-0.6,0.4c-0.2,0.1-0.5,0.1-0.7,0.1s-0.5-0.1-0.7-0.1c-0.2-0.1-0.4-0.2-0.6-0.4
	l-1.8-2C0.2,22.5,0,22,0,21.5c0-0.5,0.2-1,0.5-1.4c0.3-0.4,0.8-0.6,1.3-0.6s0.9,0.2,1.3,0.6l0.5,0.6l4.2-4.5C8,16,8.2,15.9,8.4,15.8
	c0.2-0.1,0.5-0.1,0.7-0.1c0.2,0,0.5,0.1,0.7,0.1C10,15.9,10.2,16,10.4,16.2z M10.4,31.8c0.2,0.2,0.3,0.4,0.4,0.6
	c0.1,0.2,0.1,0.5,0.1,0.7c0,0.3,0,0.5-0.1,0.7c-0.1,0.2-0.2,0.5-0.4,0.6l-5.5,5.9c-0.2,0.2-0.4,0.3-0.6,0.4C4.1,40.9,3.9,41,3.6,41
	s-0.5-0.1-0.7-0.1c-0.2-0.1-0.4-0.2-0.6-0.4l-1.8-2C0.2,38.1,0,37.6,0,37.1c0-0.5,0.2-1,0.5-1.4c0.3-0.4,0.8-0.6,1.3-0.6
	s0.9,0.2,1.3,0.6l0.5,0.6l4.2-4.5c0.2-0.2,0.4-0.3,0.6-0.4c0.2-0.1,0.5-0.1,0.7-0.1c0.2,0,0.5,0.1,0.7,0.1
	C10,31.5,10.2,31.6,10.4,31.8z"/>
</svg>
